X:159
T: AN EINEM FLUSS DER RAUSCHEND SCHOSS
N: B0647C
O: Europa, Mitteleuropa, Deutschland, Westfalen
R: Moral - Lied, Ballade
M: 6/8
L: 1/16
K: C
G,2 | G,3A,G,2C2B,2A,2 | G,3A,G,2E,4
G,2 | C4C2C2E2C2 | D6z4
G2 | F4E2D4C2 | B,4A,2G,4
G,2 | A,2F2E2D2C2B,2 | C6z4

